X:1
T:Title
%%score 1 2 3
L:1/8
Q:1/4=120
M:4/4
K:F
V:1 treble nm="Grand Piano"
V:2 treble nm="Grand Piano, Melody"
V:3 bass nm="Grand Piano"
V:1
 A8 | c3 B A2 G2 | F2 AB c2 de | f6 c2 | d3 e f2 d2 | c2 A2 c4- | c6 c2 | A2 c2 c2 A2 | %8
 B2 d2 d2 B2 | c2 c2 c2 f2 | e3 d c2 de | f2 d2 c2 B2 | c3 d e2 c2 | c6 z2 | z8 | z8 | z4 c4 | %17
 d2 B2 c2 A2 | A2 F2 F2 A2 | A2 AB c2 c2 | d2 B2 c2 c2 | c>d cB c2 c2 | c6 A2 | B2 d2 B2 G2 | %24
 c2 c2 FGAB | c2 c2 Bcde | f6 f2 | cdcB c2 c2 | c8 |] %29
V:2
 C8 | A,3 B, C2 DE | F2 D2 C2[K:bass] A,2 | C6 A,2 | B,3 C D2 B,2 | C2 A,2 G,4- | %6
 G,6[K:treble] C2 | C2 A,2 A,2 C2 | B,2 G,2 G,2 B,2 | A,2 F,2 F,2 A,2 | G,6 G,2 | F,G,A,B, C2 DB, | %12
 A,4 G,4 | F,6 z2 | z4 z2 F,2 | C3 C C2 C2 | B,CD[K:bass]B, G,2 G,2 | B,2 B,2 A,B,[K:treble] C2 | %18
 C8- | C6 A,2 | B,2 D2 B,2 G,2 | C3 C C2 z2 | z4 z2 C2 | D3 D D2 B,2 | C2 C2 C2 F2 | %25
 EDEC D2[K:bass] B,2 | C6 B,2 | A,B,CA, G,2 G,2 | F,8 |] %29
V:3
 F,8 | F,6 G,2- | G, F,3 C,2 D,E, | F,6 F,2 | G,3 A, G,2 F,2 | C,2 C,2 C,4- | C,8 | F,6 z2 | %8
 z4 z2 C,2 | F,2 A,2 A,2 F,2 | E,F,G,E, C,2 C,2 | F,6 G,2 | F,G,A,B, C2 C,2 | F,6 z2 | z4 z2 F,2 | %15
 C,3 C, C,2 A,,2 | B,,2 B,,2 C,2 C,2 | D,2 G,2 F,2 F,2 | F,8- | F,8 | G,4 C,4 | F,6 C,2 | %22
 F,2 A,2 F,2 D,2 | G,3 G, G,2 E,2 | F,2 F,2 G,2 A,2 | C,4 D,3 E, | F,6 G,2 | A,G, F,2 C,2 C,2 | %28
 F,8 |] %29

